X:1
T:Hobart, SM
T:Hobart, SM
T:Henry Tucker (1826-1882)
T:Public Domain Courtesy of the Cyber Hymnal™
C:Henry Tucker (1826-1882)
Z:Public Domain
Z:Courtesy of the Cyber Hymnal™
%%score ( 1 2 ) ( 3 4 )
L:1/8
Q:1/4=125
M:3/2
K:C
V:1 treble 
V:2 treble 
V:3 bass 
V:4 bass 
V:1
 C4 | [CE]2 [EG]2 [FA]4 G4 | [EG]8 [EG]4 | [FA]2 [EG]2 [Ec]4 [CE]4 | [B,D]8 [B,D]4 | %5
 [CE]2 [EG]2 [FA]4 [EG]4 | [Gc]2 [Fd]2 [Ee]4 (e2 d2) | [Ac]2 [FA]2 G4 [FG]4 | [EG]8 |] %9
V:2
 C4 | x8 (E2 D2) | x12 | x12 | x12 | x12 | x8 ^G4 | x4 (E2 D2) x4 | x8 |] %9
V:3
 [C,E,]4 | [C,G,]2 [C,C]2 [C,C]4 (C2 B,2) | [C,C]8 [C,C]4 | [C,C]2 [C,C]2 [C,G,]4 G,4 | %4
 G,8 [G,,B,]4 | [C,G,]2 [C,C]2 [C,C]4 [C,C]4 | [E,C]2 [G,B,]2 [C,C]4 [E,B,]4 | %7
 [F,A,]2 [F,C]2 (C2 B,2) [G,,D]4 | [C,C]8 |] %9
V:4
 x4 | x8 G,4 | x12 | x8 (C,2 E,2) | G,8 x4 | x12 | x12 | x4 G,4 x4 | x8 |] %9

